ummisco.gama.ui.shared/svg/window/icon256.svg

<?xml version="1.0" encoding="UTF-8" standalone="no"?>
<!DOCTYPE svg PUBLIC "-//W3C//DTD SVG 1.1//EN" "http://www.w3.org/Graphics/SVG/1.1/DTD/svg11.dtd">
<svg xmlns:xl="http://www.w3.org/1999/xlink" version="1.1" xmlns="http://www.w3.org/2000/svg" xmlns:dc="http://purl.org/dc/elements/1.1/" viewBox="-641.5 -3094.5812 256 256" width="256" height="256">
  <defs/>
  <g id="ICONES" stroke="none" stroke-opacity="1" stroke-dasharray="none" fill="none" fill-opacity="1">
    <title>ICONES</title>
    <g id="ICONES_Calque_1">
      <title>Calque 1</title>
      <g id="Group_4296">
        <g id="Graphic_4295">
          <path d="M -551.9 -3094.5812 L -475.1 -3094.5812 C -449.5 -3094.5812 -436.7 -3094.5812 -421.34 -3089.4612 C -408.54 -3084.3412 -395.74 -3071.5412 -390.62 -3058.7412 C -385.5 -3043.3812 -385.5 -3030.5812 -385.5 -3004.9812 L -385.5 -2928.1812 C -385.5 -2902.5812 -385.5 -2889.7812 -390.62 -2874.4212 C -395.74 -2861.6212 -408.54 -2848.8212 -421.34 -2843.7012 C -436.7 -2838.5812 -449.5 -2838.5812 -475.1 -2838.5812 L -551.9 -2838.5812 C -577.5 -2838.5812 -590.3 -2838.5812 -605.66 -2843.7012 C -618.46 -2848.8212 -631.26 -2861.6212 -636.38 -2874.4212 C -641.5 -2889.7812 -641.5 -2902.5812 -641.5 -2928.1812 L -641.5 -3004.9812 C -641.5 -3030.5812 -641.5 -3043.3812 -636.38 -3058.7412 C -631.26 -3071.5412 -618.46 -3084.3412 -605.66 -3089.4612 C -590.3 -3094.5812 -577.5 -3094.5812 -551.9 -3094.5812 M -551.9 -3094.5812" fill="white"/>
        </g>
        <g id="Group_4294">
          <g id="Graphic_4293">
            <path d="M -436.77904 -3043.302 C -479.15087 -3085.6742 -547.8491 -3085.6742 -590.22096 -3043.302 C -632.593 -3000.9303 -632.593 -2932.232 -590.22096 -2889.8602 C -547.8491 -2847.4882 -479.15087 -2847.4882 -436.77904 -2889.8602 C -394.407 -2932.232 -394.407 -3000.9303 -436.77904 -3043.302 M -447.0085 -3033.0727 C -410.28606 -2996.3504 -410.28606 -2936.812 -447.0085 -2900.0897 C -483.73075 -2863.3673 -543.26925 -2863.3673 -579.9915 -2900.0897 C -616.71394 -2936.812 -616.71394 -2996.3504 -579.9915 -3033.0727 C -543.26925 -3069.795 -483.73075 -3069.795 -447.0085 -3033.0727" fill="#efb54f" fill-opacity=".25239327"/>
            <path d="M -436.77904 -3043.302 C -479.15087 -3085.6742 -547.8491 -3085.6742 -590.22096 -3043.302 C -632.593 -3000.9303 -632.593 -2932.232 -590.22096 -2889.8602 C -547.8491 -2847.4882 -479.15087 -2847.4882 -436.77904 -2889.8602 C -394.407 -2932.232 -394.407 -3000.9303 -436.77904 -3043.302 M -447.0085 -3033.0727 C -410.28606 -2996.3504 -410.28606 -2936.812 -447.0085 -2900.0897 C -483.73075 -2863.3673 -543.26925 -2863.3673 -579.9915 -2900.0897 C -616.71394 -2936.812 -616.71394 -2996.3504 -579.9915 -3033.0727 C -543.26925 -3069.795 -483.73075 -3069.795 -447.0085 -3033.0727" stroke="#efb64f" stroke-linecap="round" stroke-linejoin="round" stroke-width="0"/>
          </g>
          <g id="Graphic_4292">
            <path d="M -455.9593 -3024.122 C -487.73815 -3055.901 -539.26185 -3055.901 -571.0407 -3024.122 C -602.81976 -2992.343 -602.81976 -2940.8193 -571.0407 -2909.0405 C -539.26185 -2877.2614 -487.73815 -2877.2614 -455.9593 -2909.0405 C -424.18024 -2940.8193 -424.18024 -2992.343 -455.9593 -3024.122 M -466.18874 -3013.8925 C -440.0593 -2987.763 -440.0593 -2945.3992 -466.18874 -2919.27 C -492.31804 -2893.1405 -534.68196 -2893.1405 -560.81126 -2919.27 C -586.9407 -2945.3992 -586.9407 -2987.763 -560.81126 -3013.8925 C -534.68196 -3040.022 -492.31804 -3040.022 -466.18874 -3013.8925" fill="#d3673a" fill-opacity=".24884463"/>
            <path d="M -455.9593 -3024.122 C -487.73815 -3055.901 -539.26185 -3055.901 -571.0407 -3024.122 C -602.81976 -2992.343 -602.81976 -2940.8193 -571.0407 -2909.0405 C -539.26185 -2877.2614 -487.73815 -2877.2614 -455.9593 -2909.0405 C -424.18024 -2940.8193 -424.18024 -2992.343 -455.9593 -3024.122 M -466.18874 -3013.8925 C -440.0593 -2987.763 -440.0593 -2945.3992 -466.18874 -2919.27 C -492.31804 -2893.1405 -534.68196 -2893.1405 -560.81126 -2919.27 C -586.9407 -2945.3992 -586.9407 -2987.763 -560.81126 -3013.8925 C -534.68196 -3040.022 -492.31804 -3040.022 -466.18874 -3013.8925" stroke="#d2673a" stroke-linecap="round" stroke-linejoin="round" stroke-width="0"/>
          </g>
          <g id="Graphic_4291">
            <path d="M -475.1395 -3004.9417 C -496.32544 -3026.1277 -530.67456 -3026.1277 -551.8605 -3004.9417 C -573.0465 -2983.7558 -573.0465 -2949.4066 -551.8605 -2928.2207 C -530.67456 -2907.0347 -496.32544 -2907.0347 -475.1395 -2928.2207 C -453.9535 -2949.4066 -453.9535 -2983.7558 -475.1395 -3004.9417 M -485.369 -2994.7122 C -469.83257 -2979.176 -469.83257 -2953.9865 -485.369 -2938.4502 C -500.9053 -2922.9138 -526.0947 -2922.9138 -541.631 -2938.4502 C -557.1674 -2953.9865 -557.1674 -2979.176 -541.631 -2994.7122 C -526.0947 -3010.2486 -500.9053 -3010.2486 -485.369 -2994.7122" fill="#3570a0" fill-opacity=".2496699"/>
            <path d="M -475.1395 -3004.9417 C -496.32544 -3026.1277 -530.67456 -3026.1277 -551.8605 -3004.9417 C -573.0465 -2983.7558 -573.0465 -2949.4066 -551.8605 -2928.2207 C -530.67456 -2907.0347 -496.32544 -2907.0347 -475.1395 -2928.2207 C -453.9535 -2949.4066 -453.9535 -2983.7558 -475.1395 -3004.9417 M -485.369 -2994.7122 C -469.83257 -2979.176 -469.83257 -2953.9865 -485.369 -2938.4502 C -500.9053 -2922.9138 -526.0947 -2922.9138 -541.631 -2938.4502 C -557.1674 -2953.9865 -557.1674 -2979.176 -541.631 -2994.7122 C -526.0947 -3010.2486 -500.9053 -3010.2486 -485.369 -2994.7122" stroke="#3770a0" stroke-linecap="round" stroke-linejoin="round" stroke-width="0"/>
          </g>
          <g id="Graphic_4290">
            <path d="M -481.0907 -3041.2504 C -510.8595 -3054.213 -546.79906 -3048.52 -571.1476 -3024.1712 C -602.9266 -2992.3924 -602.9266 -2940.8687 -571.1476 -2909.0898 C -563.32946 -2901.2716 -554.3163 -2895.377 -544.6961 -2891.4055 L -539.0417 -2904.7264 C -546.9995 -2907.9922 -554.4554 -2912.8565 -560.9181 -2919.3193 C -587.04756 -2945.4486 -587.04756 -2987.8125 -560.9181 -3013.9418 C -540.8638 -3033.9962 -511.2462 -3038.6588 -486.7451 -3027.9295 Z" fill="#d3673a"/>
            <path d="M -481.0907 -3041.2504 C -510.8595 -3054.213 -546.79906 -3048.52 -571.1476 -3024.1712 C -602.9266 -2992.3924 -602.9266 -2940.8687 -571.1476 -2909.0898 C -563.32946 -2901.2716 -554.3163 -2895.377 -544.6961 -2891.4055 L -539.0417 -2904.7264 C -546.9995 -2907.9922 -554.4554 -2912.8565 -560.9181 -2919.3193 C -587.04756 -2945.4486 -587.04756 -2987.8125 -560.9181 -3013.9418 C -540.8638 -3033.9962 -511.2462 -3038.6588 -486.7451 -3027.9295 Z" stroke="#d2673a" stroke-linecap="round" stroke-linejoin="round" stroke-width="0"/>
          </g>
          <g id="Graphic_4289">
            <path d="M -475.88007 -2904.5916 L -460.51104 -2904.5916 L -460.51104 -2954.5016 L -513.14995 -2954.5016 L -513.14995 -2939.9293 L -475.88007 -2939.9293 Z" fill="#3770a1"/>
            <path d="M -475.88007 -2904.5916 L -460.51104 -2904.5916 L -460.51104 -2954.5016 L -513.14995 -2954.5016 L -513.14995 -2939.9293 L -475.88007 -2939.9293 Z" stroke="black" stroke-linecap="round" stroke-linejoin="round" stroke-width="0"/>
          </g>
          <g id="Graphic_4288">
            <path d="M -483.1951 -2940.6974 C -483.80355 -2939.998 -484.4405 -2939.315 -485.1059 -2938.6495 C -500.64226 -2923.113 -525.8316 -2923.113 -541.36796 -2938.6495 C -556.9044 -2954.186 -556.9044 -2979.3752 -541.36796 -2994.9116 C -534.1519 -3002.1277 -524.85344 -3005.992 -515.40697 -3006.505 L -515.40697 -3020.9874 C -528.55876 -3020.464 -541.5565 -3015.182 -551.5974 -3005.141 C -572.78345 -2983.955 -572.78345 -2949.606 -551.5974 -2928.42 C -530.4115 -2907.234 -496.0624 -2907.234 -474.87646 -2928.42 C -471.14447 -2932.152 -468.0699 -2936.2925 -465.6527 -2940.6974 Z" fill="#3570a0"/>
            <path d="M -483.1951 -2940.6974 C -483.80355 -2939.998 -484.4405 -2939.315 -485.1059 -2938.6495 C -500.64226 -2923.113 -525.8316 -2923.113 -541.36796 -2938.6495 C -556.9044 -2954.186 -556.9044 -2979.3752 -541.36796 -2994.9116 C -534.1519 -3002.1277 -524.85344 -3005.992 -515.40697 -3006.505 L -515.40697 -3020.9874 C -528.55876 -3020.464 -541.5565 -3015.182 -551.5974 -3005.141 C -572.78345 -2983.955 -572.78345 -2949.606 -551.5974 -2928.42 C -530.4115 -2907.234 -496.0624 -2907.234 -474.87646 -2928.42 C -471.14447 -2932.152 -468.0699 -2936.2925 -465.6527 -2940.6974 Z" stroke="#3770a0" stroke-linecap="round" stroke-linejoin="round" stroke-width="0"/>
          </g>
          <g id="Graphic_4287">
            <path d="M -423.42947 -3027.112 C -427.2769 -3032.8234 -431.72677 -3038.25 -436.77904 -3043.302 C -479.15087 -3085.6742 -547.8491 -3085.6742 -590.22096 -3043.302 C -623.8917 -3009.6316 -630.8062 -2959.337 -610.9643 -2918.8386 L -598.3988 -2926.0933 C -615.0627 -2961.0363 -608.92695 -3004.1374 -579.9915 -3033.0727 C -543.26925 -3069.795 -483.73075 -3069.795 -447.0085 -3033.0727 C -442.87117 -3028.9354 -439.19997 -3024.5085 -435.9949 -3019.857 Z" fill="#efb54f"/>
            <path d="M -423.42947 -3027.112 C -427.2769 -3032.8234 -431.72677 -3038.25 -436.77904 -3043.302 C -479.15087 -3085.6742 -547.8491 -3085.6742 -590.22096 -3043.302 C -623.8917 -3009.6316 -630.8062 -2959.337 -610.9643 -2918.8386 L -598.3988 -2926.0933 C -615.0627 -2961.0363 -608.92695 -3004.1374 -579.9915 -3033.0727 C -543.26925 -3069.795 -483.73075 -3069.795 -447.0085 -3033.0727 C -442.87117 -3028.9354 -439.19997 -3024.5085 -435.9949 -3019.857 Z" stroke="#efb64f" stroke-linecap="round" stroke-linejoin="round" stroke-width="0"/>
          </g>
        </g>
      </g>
    </g>
  </g>
</svg>

<svg xmlns="http://www.w3.org/2000/svg" width="256" height="256" viewBox="-641.5 -3094.581 256 256"><g fill="none"><path fill="#fff" d="M-551.9-3094.581h76.8c25.6 0 38.4 0 53.76 5.12 12.8 5.12 25.6 17.92 30.72 30.72 5.12 15.36 5.12 28.16 5.12 53.76v76.8c0 25.6 0 38.4-5.12 53.76-5.12 12.8-17.92 25.6-30.72 30.72-15.36 5.12-28.16 5.12-53.76 5.12h-76.8c-25.6 0-38.4 0-53.76-5.12-12.8-5.12-25.6-17.92-30.72-30.72-5.12-15.36-5.12-28.16-5.12-53.76v-76.8c0-25.6 0-38.4 5.12-53.76 5.12-12.8 17.92-25.6 30.72-30.72 15.36-5.12 28.16-5.12 53.76-5.12m0 0"/><path fill="#efb54f" fill-opacity=".252" d="M-436.779-3043.302c-42.372-42.372-111.07-42.372-153.442 0-42.372 42.372-42.372 111.07 0 153.442 42.372 42.372 111.07 42.372 153.442 0 42.372-42.372 42.372-111.07 0-153.442m-10.23 10.23c36.723 36.722 36.723 96.26 0 132.982-36.722 36.723-96.26 36.723-132.982 0-36.723-36.722-36.723-96.26 0-132.983 36.722-36.722 96.26-36.722 132.982 0"/><path d="M-436.779-3043.302c-42.372-42.372-111.07-42.372-153.442 0-42.372 42.372-42.372 111.07 0 153.442 42.372 42.372 111.07 42.372 153.442 0 42.372-42.372 42.372-111.07 0-153.442m-10.23 10.23c36.723 36.722 36.723 96.26 0 132.982-36.722 36.723-96.26 36.723-132.982 0-36.723-36.722-36.723-96.26 0-132.983 36.722-36.722 96.26-36.722 132.982 0"/><path fill="#d3673a" fill-opacity=".249" d="M-455.96-3024.122c-31.778-31.779-83.302-31.779-115.08 0-31.78 31.779-31.78 83.303 0 115.081 31.778 31.78 83.302 31.78 115.08 0 31.78-31.778 31.78-83.302 0-115.081m-10.229 10.23c26.13 26.129 26.13 68.493 0 94.622-26.129 26.13-68.493 26.13-94.622 0-26.13-26.13-26.13-68.493 0-94.622 26.129-26.13 68.493-26.13 94.622 0"/><path d="M-455.96-3024.122c-31.778-31.779-83.302-31.779-115.08 0-31.78 31.779-31.78 83.303 0 115.081 31.778 31.78 83.302 31.78 115.08 0 31.78-31.778 31.78-83.302 0-115.081m-10.229 10.23c26.13 26.129 26.13 68.493 0 94.622-26.129 26.13-68.493 26.13-94.622 0-26.13-26.13-26.13-68.493 0-94.622 26.129-26.13 68.493-26.13 94.622 0"/><path fill="#3570a0" fill-opacity=".25" d="M-475.14-3004.942c-21.185-21.186-55.535-21.186-76.72 0-21.187 21.186-21.187 55.535 0 76.721 21.185 21.186 55.535 21.186 76.72 0 21.186-21.186 21.186-55.535 0-76.72m-10.229 10.229c15.536 15.536 15.536 40.726 0 56.262-15.536 15.536-40.726 15.536-56.262 0-15.536-15.537-15.536-40.726 0-56.262 15.536-15.537 40.726-15.537 56.262 0"/><path d="M-475.14-3004.942c-21.185-21.186-55.535-21.186-76.72 0-21.187 21.186-21.187 55.535 0 76.721 21.185 21.186 55.535 21.186 76.72 0 21.186-21.186 21.186-55.535 0-76.72m-10.229 10.229c15.536 15.536 15.536 40.726 0 56.262-15.536 15.536-40.726 15.536-56.262 0-15.536-15.537-15.536-40.726 0-56.262 15.536-15.537 40.726-15.537 56.262 0"/><path fill="#d3673a" d="M-481.09-3041.25c-29.77-12.963-65.71-7.27-90.058 17.079-31.779 31.779-31.779 83.302 0 115.081 7.819 7.818 16.832 13.713 26.452 17.685l5.654-13.321c-7.957-3.266-15.413-8.13-21.876-14.593-26.13-26.13-26.13-68.494 0-94.623 20.054-20.054 49.672-24.717 74.173-13.988Z"/><path d="M-481.09-3041.25c-29.77-12.963-65.71-7.27-90.058 17.079-31.779 31.779-31.779 83.302 0 115.081 7.819 7.818 16.832 13.713 26.452 17.685l5.654-13.321c-7.957-3.266-15.413-8.13-21.876-14.593-26.13-26.13-26.13-68.494 0-94.623 20.054-20.054 49.672-24.717 74.173-13.988Z"/><path fill="#3770a1" d="M-475.88-2904.592h15.369v-49.91h-52.639v14.573h37.27Z"/><path d="M-475.88-2904.592h15.369v-49.91h-52.639v14.573h37.27Z"/><path fill="#3570a0" d="M-483.195-2940.697c-.609.699-1.245 1.382-1.91 2.048-15.537 15.536-40.727 15.536-56.263 0-15.536-15.537-15.536-40.726 0-56.263a39.636 39.636 0 0 1 25.961-11.593v-14.482c-13.152.523-26.15 5.805-36.19 15.846-21.186 21.186-21.186 55.535 0 76.721 21.185 21.186 55.535 21.186 76.72 0a54.275 54.275 0 0 0 9.224-12.277Z"/><path d="M-483.195-2940.697c-.609.699-1.245 1.382-1.91 2.048-15.537 15.536-40.727 15.536-56.263 0-15.536-15.537-15.536-40.726 0-56.263a39.636 39.636 0 0 1 25.961-11.593v-14.482c-13.152.523-26.15 5.805-36.19 15.846-21.186 21.186-21.186 55.535 0 76.721 21.185 21.186 55.535 21.186 76.72 0a54.275 54.275 0 0 0 9.224-12.277Z"/><path fill="#efb54f" d="M-423.43-3027.112a109.04 109.04 0 0 0-13.349-16.19c-42.372-42.372-111.07-42.372-153.442 0-33.67 33.67-40.585 83.965-20.743 124.463l12.565-7.254c-16.664-34.943-10.528-78.044 18.408-106.98 36.722-36.722 96.26-36.722 132.982 0a94.56 94.56 0 0 1 11.014 13.216Z"/><path d="M-423.43-3027.112a109.04 109.04 0 0 0-13.349-16.19c-42.372-42.372-111.07-42.372-153.442 0-33.67 33.67-40.585 83.965-20.743 124.463l12.565-7.254c-16.664-34.943-10.528-78.044 18.408-106.98 36.722-36.722 96.26-36.722 132.982 0a94.56 94.56 0 0 1 11.014 13.216Z"/></g></svg>
